dist/img/svg/call-ico.svg

<svg width="37" height="37" viewBox="0 0 37 37" fill="none" xmlns="http://www.w3.org/2000/svg">
<path fill-rule="evenodd" clip-rule="evenodd" d="M18.5 36C28.165 36 36 28.165 36 18.5C36 8.83502 28.165 1 18.5 1C8.83502 1 1 8.83502 1 18.5C1 28.165 8.83502 36 18.5 36ZM18.5 37C28.7173 37 37 28.7173 37 18.5C37 8.28273 28.7173 0 18.5 0C8.28273 0 0 8.28273 0 18.5C0 28.7173 8.28273 37 18.5 37Z" fill="black"/>
<path d="M25.787 25.3064L23.0599 21.933C22.7131 21.5072 22.0974 21.4193 21.6452 21.7311L20.2388 22.7079C20.0567 22.8376 19.8069 22.8137 19.6527 22.6518L19.4947 22.487C18.9697 21.9444 18.3166 21.2691 17.2261 19.1867C16.1355 17.1043 15.9514 16.182 15.8038 15.4426L15.7588 15.219C15.712 14.9997 15.8339 14.7794 16.0447 14.7025L17.6473 14.1021C18.1608 13.9077 18.4391 13.3516 18.2868 12.8241L17.0657 8.6615C16.9088 8.12371 16.3566 7.8045 15.8123 7.93686L14.1015 8.35225C13.5658 8.47697 13.0991 8.80421 12.7993 9.2654C11.6902 10.9935 11.0614 14.3774 14.3652 20.6842C16.9934 25.7003 19.5178 27.617 21.4736 28.2279C21.9231 28.3705 22.3897 28.452 22.861 28.4702C23.4108 28.4864 23.9456 28.2889 24.3529 27.9192L25.6688 26.7501C26.0879 26.3778 26.1399 25.7418 25.787 25.3064ZM25.271 26.3064L23.9569 27.477C23.6638 27.7442 23.2788 27.8876 22.8824 27.8773C20.988 27.8114 18.0637 26.4624 14.8918 20.4082C11.7199 14.354 12.2754 11.1819 13.2995 9.58637C13.5169 9.25416 13.8545 9.0189 14.2414 8.92985L15.9518 8.51559C16.188 8.45804 16.4277 8.59656 16.4958 8.82994L17.715 12.9916C17.7812 13.2205 17.6606 13.4618 17.4378 13.5463L15.8349 14.1466C15.3487 14.3242 15.067 14.8322 15.174 15.3386L15.2183 15.5567C15.3731 16.3347 15.5654 17.3025 16.6967 19.4615C17.8281 21.6205 18.514 22.3294 19.0653 22.8995L19.2195 23.0603C19.5749 23.4365 20.1529 23.4941 20.5756 23.1954L21.9816 22.2191C22.1779 22.0841 22.4448 22.1223 22.5954 22.3068L25.3222 25.6802C25.4755 25.8689 25.4529 26.145 25.271 26.3064Z" fill="black" stroke="black" stroke-width="0.5"/>
</svg>

<svg width="37" height="37" viewBox="0 0 37 37" fill="none" xmlns="http://www.w3.org/2000/svg"><path fill-rule="evenodd" clip-rule="evenodd" d="M18.5 36C28.165 36 36 28.165 36 18.5S28.165 1 18.5 1 1 8.835 1 18.5 8.835 36 18.5 36zm0 1C28.717 37 37 28.717 37 18.5S28.717 0 18.5 0 0 8.283 0 18.5 8.283 37 18.5 37z" fill="#000"/><path d="M25.787 25.306l-2.727-3.373a1.053 1.053 0 00-1.415-.202l-1.406.977a.45.45 0 01-.586-.056l-.158-.165c-.525-.543-1.178-1.218-2.269-3.3-1.09-2.083-1.275-3.005-1.422-3.744l-.045-.224a.45.45 0 01.286-.516l1.602-.6c.514-.195.792-.751.64-1.279l-1.221-4.162a1.048 1.048 0 00-1.254-.725l-1.71.415a2.129 2.129 0 00-1.303.913c-1.109 1.728-1.738 5.112 1.566 11.42 2.628 5.015 5.153 6.932 7.109 7.543.45.142.916.224 1.387.242a2.127 2.127 0 001.492-.55l1.316-1.17a1.05 1.05 0 00.118-1.444zm-.516 1l-1.314 1.171c-.293.267-.678.41-1.075.4-1.894-.066-4.818-1.415-7.99-7.469-3.172-6.054-2.617-9.226-1.592-10.822.217-.332.554-.567.941-.656l1.71-.414a.455.455 0 01.545.314l1.219 4.162a.457.457 0 01-.277.554l-1.603.6a1.04 1.04 0 00-.661 1.193l.044.218c.155.778.347 1.745 1.479 3.905 1.131 2.159 1.817 2.867 2.368 3.438l.154.16a1.04 1.04 0 001.357.135l1.406-.976a.458.458 0 01.613.088l2.727 3.373a.454.454 0 01-.051.626z" fill="#000" stroke="#000" stroke-width=".5"/></svg>
